packages/match-icons/sendgrid/svg/sign-up.svg

<svg fill="none" height="32" viewBox="0 0 32 32" width="32" xmlns="http://www.w3.org/2000/svg"><g stroke="#394762" stroke-linecap="round" stroke-linejoin="round" stroke-width="1.7"><path d="m30.1693 19.8267-10.1693 10.1733-5 1 1-5 10.1747-10.1733c.2616-.2622.5725-.4702.9146-.6121.3422-.1419.7089-.215 1.0794-.215.3704 0 .7372.0731 1.0793.215.3422.1419.653.3499.9147.6121l.012.0106c.5282.5298.8243 1.2477.8233 1.9958s-.2991 1.4652-.8287 1.9936z"/><path d="m10.9946 27h-7.99997c-.53043 0-1.03914-.2107-1.41421-.5858-.37508-.3751-.585791-.8838-.585791-1.4142v-22c0-.53043.210711-1.03914.585791-1.41421.37507-.37508.88378-.58579 1.41421-.58579h19.99997c.5305 0 1.0392.21071 1.4142.58579.3751.37507.5858.88378.5858 1.41421v9"/><path d="m10.9946 7h8"/><path d="m6.99463 13h11.99997"/><path d="m6.99463 19h9.99997"/></g></svg>

<svg width="32" height="32" viewBox="0 0 32 32" fill="none" xmlns="http://www.w3.org/2000/svg">
<path d="M30.1693 19.8267L20 30L15 31L16 26L26.1747 15.8267C26.4363 15.5645 26.7472 15.3565 27.0893 15.2146C27.4315 15.0727 27.7982 14.9996 28.1687 14.9996C28.5391 14.9996 28.9059 15.0727 29.248 15.2146C29.5902 15.3565 29.901 15.5645 30.1627 15.8267L30.1747 15.8373C30.7029 16.3671 30.999 17.085 30.998 17.8331C30.997 18.5812 30.6989 19.2983 30.1693 19.8267Z" stroke="#394762" stroke-width="1.7" stroke-linecap="round" stroke-linejoin="round"/>
<path d="M10.9946 27H2.99463C2.4642 27 1.95549 26.7893 1.58042 26.4142C1.20534 26.0391 0.994629 25.5304 0.994629 25V3C0.994629 2.46957 1.20534 1.96086 1.58042 1.58579C1.95549 1.21071 2.4642 1 2.99463 1H22.9946C23.5251 1 24.0338 1.21071 24.4088 1.58579C24.7839 1.96086 24.9946 2.46957 24.9946 3V12" stroke="#394762" stroke-width="1.7" stroke-linecap="round" stroke-linejoin="round"/>
<path d="M10.9946 7H18.9946" stroke="#394762" stroke-width="1.7" stroke-linecap="round" stroke-linejoin="round"/>
<path d="M6.99463 13H18.9946" stroke="#394762" stroke-width="1.7" stroke-linecap="round" stroke-linejoin="round"/>
<path d="M6.99463 19H16.9946" stroke="#394762" stroke-width="1.7" stroke-linecap="round" stroke-linejoin="round"/>
</svg>
